css/img/instagram.svg

<svg xmlns="http://www.w3.org/2000/svg" width="61.75" height="37.5" viewBox="0 0 61.75 37.5"><path fill="#fff" d="M43.52.385c1.592 0 2.946.556 4.057 1.665 1.111 1.112 1.664 2.464 1.664 4.06v6.234h-9.309c-2.222-3.131-5.24-4.698-9.055-4.698-3.931 0-6.948 1.567-9.055 4.698h-9.312v-6.235c0-1.596.557-2.947 1.665-4.06 1.112-1.109 2.464-1.665 4.057-1.665l25.288.001zm-1.54 18.365c0-.74-.086-1.453-.256-2.134h7.514v14.69c0 1.596-.553 2.963-1.663 4.098-1.109 1.141-2.466 1.711-4.058 1.711h-25.285c-1.593 0-2.944-.57-4.057-1.711-1.108-1.135-1.665-2.502-1.665-4.098v-14.69h7.432c-.115.91-.171 1.623-.171 2.134 0 3.021 1.081 5.623 3.246 7.816 2.162 2.192 4.782 3.287 7.859 3.287 3.019 0 5.62-1.095 7.813-3.287 2.193-2.193 3.291-4.795 3.291-7.816zm-4.27 0c0 1.881-.671 3.489-2.01 4.827s-2.947 2.006-4.823 2.006c-1.881 0-3.49-.668-4.828-2.006-1.338-1.338-2.005-2.946-2.005-4.827 0-1.936.667-3.559 2.005-4.87 1.338-1.31 2.947-1.963 4.828-1.963 1.876 0 3.484.653 4.823 1.963 1.339 1.311 2.01 2.934 2.01 4.87zm8.54-11.275v-3.076c0-.682-.341-1.026-1.025-1.026h-3.072c-.686 0-1.024.345-1.024 1.026v3.075c0 .229.099.456.299.685.195.227.435.341.724.341h3.072c.685 0 1.026-.341 1.026-1.025z"/></svg>

<?xml version="1.0" encoding="utf-8"?>
<!-- Generator: Adobe Illustrator 16.0.4, SVG Export Plug-In . SVG Version: 6.00 Build 0)  -->
<!DOCTYPE svg PUBLIC "-//W3C//DTD SVG 1.1//EN" "http://www.w3.org/Graphics/SVG/1.1/DTD/svg11.dtd">
<svg version="1.1" id="Layer_1" xmlns="http://www.w3.org/2000/svg" xmlns:xlink="http://www.w3.org/1999/xlink" x="0px" y="0px"
	 width="61.75px" height="37.5px" viewBox="0 0 61.75 37.5" enable-background="new 0 0 61.75 37.5" xml:space="preserve">
<g>
	<path fill="#FFFFFF" d="M43.52,0.385c1.592,0,2.946,0.556,4.057,1.665c1.111,1.112,1.664,2.464,1.664,4.06v6.234h-9.309
		c-2.222-3.131-5.24-4.698-9.055-4.698c-3.931,0-6.948,1.567-9.055,4.698H12.51V6.109c0-1.596,0.557-2.947,1.665-4.06
		c1.112-1.109,2.464-1.665,4.057-1.665L43.52,0.385L43.52,0.385z M41.98,18.75c0-0.74-0.086-1.453-0.256-2.134h7.514v14.69
		c0,1.596-0.553,2.963-1.663,4.098c-1.109,1.141-2.466,1.711-4.058,1.711H18.232c-1.593,0-2.944-0.57-4.057-1.711
		c-1.108-1.135-1.665-2.502-1.665-4.098v-14.69h7.432c-0.115,0.91-0.171,1.623-0.171,2.134c0,3.021,1.081,5.623,3.246,7.816
		c2.162,2.192,4.782,3.287,7.859,3.287c3.019,0,5.62-1.095,7.813-3.287C40.882,24.373,41.98,21.771,41.98,18.75z M37.71,18.75
		c0,1.881-0.671,3.489-2.01,4.827s-2.947,2.006-4.823,2.006c-1.881,0-3.49-0.668-4.828-2.006c-1.338-1.338-2.005-2.946-2.005-4.827
		c0-1.936,0.667-3.559,2.005-4.87c1.338-1.31,2.947-1.963,4.828-1.963c1.876,0,3.484,0.653,4.823,1.963
		C37.039,15.191,37.71,16.814,37.71,18.75z M46.25,7.475V4.399c0-0.682-0.341-1.026-1.025-1.026h-3.072
		c-0.686,0-1.024,0.345-1.024,1.026v3.075c0,0.229,0.099,0.456,0.299,0.685C41.623,8.386,41.863,8.5,42.152,8.5h3.072
		C45.909,8.5,46.25,8.159,46.25,7.475z"/>
</g>
</svg>
